svg/fluentui-system-icons/ic_fluent_broom_20_regular.svg

<svg width="20" height="20" viewBox="0 0 20 20" fill="none" xmlns="http://www.w3.org/2000/svg">
<path d="M17.9099 2.1816C18.1052 2.37687 18.1052 2.69345 17.9099 2.88871L12.5872 8.21144C14.0023 9.97829 13.8909 12.5646 12.2531 14.2024L11.5895 14.866L9.49982 18.3488C9.4206 18.4808 9.28498 18.569 9.13216 18.5878C8.97935 18.6066 8.82639 18.554 8.71752 18.4451L1.64645 11.374C1.53758 11.2651 1.48494 11.1122 1.50375 10.9594C1.52256 10.8066 1.61073 10.6709 1.74276 10.5917L5.2255 8.50207L5.88909 7.83847C7.52695 6.20062 10.1132 6.08924 11.8801 7.50433L17.2028 2.1816C17.3981 1.98634 17.7146 1.98634 17.9099 2.1816ZM6.24265 8.89913L11.1924 13.8489L11.5459 13.4953C12.9128 12.1285 12.9128 9.91242 11.5459 8.54558C10.1791 7.17875 7.96303 7.17875 6.5962 8.54558L6.24265 8.89913ZM5.45803 9.52874L2.80638 11.1197L8.9718 17.2852L10.5628 14.6335L5.45803 9.52874Z" fill="#212121"/>
</svg>

<svg xmlns="http://www.w3.org/2000/svg" width="20" height="20"><path d="M17.91 2.182a.5.5 0 0 1 0 .707L12.587 8.21a4.5 4.5 0 0 1-.334 5.991l-.664.664-2.09 3.483a.5.5 0 0 1-.781.096l-7.072-7.071a.5.5 0 0 1 .097-.782l3.482-2.09.664-.664a4.5 4.5 0 0 1 5.991-.334l5.323-5.322a.5.5 0 0 1 .707 0ZM6.243 8.899l4.95 4.95.353-.354a3.5 3.5 0 1 0-4.95-4.95l-.353.354Zm-.785.63-2.652 1.59 6.166 6.166 1.59-2.652L5.459 9.53Z"/></svg>
